static/img/kroki/30605bfb0aad52b14080c331dd0198d3.svg

<?xml version="1.0" encoding="us-ascii" standalone="no"?><svg xmlns="http://www.w3.org/2000/svg" xmlns:xlink="http://www.w3.org/1999/xlink" contentStyleType="text/css" height="252px" preserveAspectRatio="none" style="width:250px;height:252px;" version="1.1" viewBox="0 0 250 252" width="250px" zoomAndPan="magnify"><defs/><g><!--class aws_autoscaling_group--><g id="elem_aws_autoscaling_group"><rect codeLine="22" fill="#3D176E" height="39.7891" id="aws_autoscaling_group" rx="2.5" ry="2.5" style="stroke:#000D19;stroke-width:0.5;" width="236" x="7" y="206.58"/><ellipse cx="22" cy="226.4745" fill="#ADD1B2" rx="11" ry="11" style="stroke:#181818;stroke-width:1.0;"/><path d="M24.9688,232.1152 Q24.3906,232.412 23.75,232.5527 Q23.1094,232.7089 22.4063,232.7089 Q19.9063,232.7089 18.5781,231.0683 Q17.2656,229.412 17.2656,226.287 Q17.2656,223.162 18.5781,221.5058 Q19.9063,219.8495 22.4063,219.8495 Q23.1094,219.8495 23.75,220.0058 Q24.4063,220.162 24.9688,220.4589 L24.9688,223.1777 Q24.3438,222.5995 23.75,222.3339 Q23.1563,222.0527 22.5313,222.0527 Q21.1875,222.0527 20.5,223.1308 Q19.8125,224.1933 19.8125,226.287 Q19.8125,228.3808 20.5,229.4589 Q21.1875,230.5214 22.5313,230.5214 Q23.1563,230.5214 23.75,230.2558 Q24.3438,229.9745 24.9688,229.3964 L24.9688,232.1152 Z " fill="#000000"/><text fill="#D9B8FF" font-family="Helvetica" font-size="17" lengthAdjust="spacing" textLength="194" x="41" y="232.3598">aws_autoscaling_group</text></g><!--class aws_eks_cluster--><g id="elem_aws_eks_cluster"><rect codeLine="24" fill="#3D176E" height="39.7891" id="aws_eks_cluster" rx="2.5" ry="2.5" style="stroke:#000D19;stroke-width:0.5;" width="177" x="36.5" y="7"/><ellipse cx="51.5" cy="26.8945" fill="#ADD1B2" rx="11" ry="11" style="stroke:#181818;stroke-width:1.0;"/><path d="M54.4688,32.5352 Q53.8906,32.832 53.25,32.9727 Q52.6094,33.1289 51.9063,33.1289 Q49.4063,33.1289 48.0781,31.4883 Q46.7656,29.832 46.7656,26.707 Q46.7656,23.582 48.0781,21.9258 Q49.4063,20.2695 51.9063,20.2695 Q52.6094,20.2695 53.25,20.4258 Q53.9063,20.582 54.4688,20.8789 L54.4688,23.5977 Q53.8438,23.0195 53.25,22.7539 Q52.6563,22.4727 52.0313,22.4727 Q50.6875,22.4727 50,23.5508 Q49.3125,24.6133 49.3125,26.707 Q49.3125,28.8008 50,29.8789 Q50.6875,30.9414 52.0313,30.9414 Q52.6563,30.9414 53.25,30.6758 Q53.8438,30.3945 54.4688,29.8164 L54.4688,32.5352 Z " fill="#000000"/><text fill="#D9B8FF" font-family="Helvetica" font-size="17" lengthAdjust="spacing" textLength="135" x="70.5" y="32.7798">aws_eks_cluster</text></g><!--class aws_eks_nodegroup--><g id="elem_aws_eks_nodegroup"><rect codeLine="26" fill="#3D176E" height="39.7891" id="aws_eks_nodegroup" rx="2.5" ry="2.5" style="stroke:#000D19;stroke-width:0.5;" width="210" x="20" y="106.79"/><ellipse cx="35" cy="126.6845" fill="#ADD1B2" rx="11" ry="11" style="stroke:#181818;stroke-width:1.0;"/><path d="M37.9688,132.3252 Q37.3906,132.622 36.75,132.7627 Q36.1094,132.9189 35.4063,132.9189 Q32.9063,132.9189 31.5781,131.2783 Q30.2656,129.622 30.2656,126.497 Q30.2656,123.372 31.5781,121.7158 Q32.9063,120.0595 35.4063,120.0595 Q36.1094,120.0595 36.75,120.2158 Q37.4063,120.372 37.9688,120.6689 L37.9688,123.3877 Q37.3438,122.8095 36.75,122.5439 Q36.1563,122.2627 35.5313,122.2627 Q34.1875,122.2627 33.5,123.3408 Q32.8125,124.4033 32.8125,126.497 Q32.8125,128.5908 33.5,129.6689 Q34.1875,130.7314 35.5313,130.7314 Q36.1563,130.7314 36.75,130.4658 Q37.3438,130.1845 37.9688,129.6064 L37.9688,132.3252 Z " fill="#000000"/><text fill="#D9B8FF" font-family="Helvetica" font-size="17" lengthAdjust="spacing" textLength="168" x="54" y="132.5698">aws_eks_nodegroup</text></g><!--link aws_eks_cluster to aws_eks_nodegroup--><g id="link_aws_eks_cluster_aws_eks_nodegroup"><path codeLine="28" d="M125,47.22 C125,64.36 125,83.27 125,100.41 " fill="none" id="aws_eks_cluster-to-aws_eks_nodegroup" style="stroke:#1A83AF;stroke-width:2.0;"/><polygon fill="#1A83AF" points="125,106.41,129,97.41,125,101.41,121,97.41,125,106.41" style="stroke:#1A83AF;stroke-width:2.0;"/></g><!--link aws_eks_nodegroup to aws_autoscaling_group--><g id="link_aws_eks_nodegroup_aws_autoscaling_group"><path codeLine="29" d="M125,147.01 C125,164.15 125,183.06 125,200.2 " fill="none" id="aws_eks_nodegroup-to-aws_autoscaling_group" style="stroke:#1A83AF;stroke-width:2.0;"/><polygon fill="#1A83AF" points="125,206.2,129,197.2,125,201.2,121,197.2,125,206.2" style="stroke:#1A83AF;stroke-width:2.0;"/></g><!--SRC=[XP1BJyCm48Jl-HMMUgxK446J2rA8LC6bGfGRGj4cNhTM4ZjQEqG5yTzfA0ytxkEwy-tCx6uaHuPDQxUimQP0Ce6ff6g1e64faUupNMjY4o50HFEnkD3ANWIMq22xn_eDhInXJ3nlP5afD8PTET8TbDMQTAVutjuIABEJK5c7ocem9hMMPD5PTChmf8Y569DZqqd4m_aDUfWcZlI3p6Op7YPZv6BKsRl_Y9LyHnQwJrjgYrvDB-AREjjo89oItg6_-icEZy2vL6jsxSoUzfr88HtCLnlWkXze0RLnOun5GcstBMRULPZ4NCoFmW-du7Bu78FUvD1PRKgeTwdvGBRi8_XqTAnCNjRTu7b4KPhZ_zQOdxvCmZIEqiNhzDPV2NmJRy5hzmK0]--></g></svg>

<svg xmlns="http://www.w3.org/2000/svg" width="250" height="252" viewBox="0 0 250 252"><rect width="236" height="39.789" x="7" y="206.58" fill="#3D176E" rx="2.5" ry="2.5" style="stroke:#000d19;stroke-width:.5"/><circle cx="22" cy="226.475" r="11" fill="#ADD1B2" style="stroke:#181818;stroke-width:1"/><path d="M24.969 232.115q-.578.297-1.219.438-.64.156-1.344.156-2.5 0-3.828-1.64-1.312-1.657-1.312-4.782t1.312-4.781q1.328-1.656 3.828-1.656.703 0 1.344.156.656.156 1.219.453v2.719q-.625-.578-1.219-.844-.594-.281-1.219-.281-1.343 0-2.031 1.078-.687 1.062-.687 3.156t.687 3.172q.688 1.062 2.031 1.062.625 0 1.219-.265.594-.281 1.219-.86z"/><text x="41" y="232.36" fill="#D9B8FF" font-family="Helvetica" font-size="17" textLength="194">aws_autoscaling_group</text><rect width="177" height="39.789" x="36.5" y="7" fill="#3D176E" rx="2.5" ry="2.5" style="stroke:#000d19;stroke-width:.5"/><circle cx="51.5" cy="26.895" r="11" fill="#ADD1B2" style="stroke:#181818;stroke-width:1"/><path d="M54.469 32.535q-.578.297-1.219.438-.64.156-1.344.156-2.5 0-3.828-1.64-1.312-1.657-1.312-4.782t1.312-4.781q1.328-1.656 3.828-1.656.703 0 1.344.156.656.156 1.219.453v2.719q-.625-.578-1.219-.844-.594-.281-1.219-.281-1.343 0-2.031 1.078-.687 1.062-.687 3.156T50 29.879q.688 1.062 2.031 1.062.625 0 1.219-.265.594-.281 1.219-.86z"/><text x="70.5" y="32.78" fill="#D9B8FF" font-family="Helvetica" font-size="17" textLength="135">aws_eks_cluster</text><rect width="210" height="39.789" x="20" y="106.79" fill="#3D176E" rx="2.5" ry="2.5" style="stroke:#000d19;stroke-width:.5"/><circle cx="35" cy="126.684" r="11" fill="#ADD1B2" style="stroke:#181818;stroke-width:1"/><path d="M37.969 132.325q-.578.297-1.219.438-.64.156-1.344.156-2.5 0-3.828-1.64-1.312-1.657-1.312-4.782t1.312-4.781q1.328-1.656 3.828-1.656.703 0 1.344.156.656.156 1.219.453v2.719q-.625-.579-1.219-.844-.594-.281-1.219-.281-1.343 0-2.031 1.078-.687 1.062-.687 3.156t.687 3.172q.688 1.062 2.031 1.062.625 0 1.219-.265.594-.281 1.219-.86z"/><text x="54" y="132.57" fill="#D9B8FF" font-family="Helvetica" font-size="17" textLength="168">aws_eks_nodegroup</text><path fill="none" d="M125 47.22v53.19" style="stroke:#1a83af;stroke-width:2"/><path fill="#1A83AF" d="m125 106.41 4-9-4 4-4-4z" style="stroke:#1a83af;stroke-width:2"/><path fill="none" d="M125 147.01v53.19" style="stroke:#1a83af;stroke-width:2"/><path fill="#1A83AF" d="m125 206.2 4-9-4 4-4-4z" style="stroke:#1a83af;stroke-width:2"/></svg>
